X:1
T:Whisper a Prayer
T:Scott Lawrence, 1922
T:Whisper a Prayer
T:Public Domain
T:Public Domain
C:Scott Lawrence, 1922
Z:Public Domain
%%score 1 2
L:1/8
M:6/8
K:Bb
V:1 treble 
V:2 bass 
V:1
 [DF][DG][DA] [FB][Fc][FB] | [EA]3 [EF]3 | [EF][EA][EB] [Fc][F=B][Fc] | [Fd]3- [Fd]2 z | %4
w: 1.~Whis- per a prayer in the|morn- ing,|Just at the break of the|day; *|
w: 2.~Whis- per a prayer at the|noon- time,|Pause in the midst of the|throng, *|
w: 3.~Whis- per a prayer at the|twi- light,|Af- ter the day’s work is|done, *|
 [DF][DG][DA] [FB][FA][FG] | [FA][FB][F=B] [Fc][FB][Fc] | [=E=e][Ed][Ec] [EG][EA][EB] | %7
w: Why fear the fight, in your|bat- tle for right, When you|know He will lead all the|
w: Look un- to Him who can|con- quer all sin, In thy|weak- ness, in Him thou art|
w: No o- ther friend will prove|true to the end, Like Christ|Je- sus, the Cru- ci- fied|
 [Ec]3- [Ec]2 z ||"^Refrain" [DB][DA][DB] [DF]2 [DG] | [EA][E^G][EA] [Ec]3 | %10
w: way? *|||
w: strong. *|Whis- per a prayer, just|whis- per a prayer,|
w: One. *|||
 [DB][DA][DB] [Fe][Fd][F=B] | [FG][Fe][Fd] [Ec]3 | [=EB][EA][EG] [^CB][CA][CG] | %13
w: |||
w: Ev- en a whis- per He’ll|hear o- ver there;|Vic- tory is thine, in His|
w: |||
 [DF][^C=E][DF] [Fd]2 [F=B]/[FG]/ | [=Ec][EG][EB] [_EA][EB][Ec] | [DB]3- [DB]2 |] %16
w: |||
w: love so sub- lime, When to|Je- sus you whis- per a|prayer. *|
w: |||
V:2
 [B,,B,][B,,B,][B,,B,] [D,B,][D,B,][D,B,] | [F,C]3 [F,A,]3 | %2
 [F,A,][F,C][F,G,] [F,A,][F,^G,][F,A,] | [B,,F,B,]3- [B,,F,B,]2 z | %4
 [B,,B,][B,,B,][B,,B,] [D,B,][D,B,][_D,B,] | [C,C][C,G,][C,^G,] [C,A,][C,A,][C,A,] | %6
 [C,B,][C,B,][C,B,] [C,B,][C,A,][C,G,] | [F,A,]3- [F,A,]2 z || %8
 [B,,B,][B,,F,][B,,F,] [B,,B,]2 [B,,B,] | [F,C][F,=B,][F,C] [F,A,]3 | %10
 [B,,B,][B,,B,][B,,B,] [G,=B,][G,B,][G,D] | [G,=B,][G,A,][G,B,] [C,C]3 | %12
 [^C,G,][C,A,][C,B,] [=E,G,][E,A,][E,B,] | [F,B,][G,B,][F,B,] [G,=B,]2 [G,D]/[G,B,]/ | %14
 [C,B,][C,B,][C,C] [F,C][F,G,][F,A,] | [B,,F,B,]3- [B,,F,B,]2 |] %16

